!!!!SEGMENT: pl-wnifc--13846--026_anonim--piesni-polskie-i-ruskie-ludu-galicyjskiego-26-a-bodaj-to-w-takim-domu.krn
!!!kernsource:
!!!cenid: 18xx:3248
!!!COM: Anonim
!!!COM-rismid: pe30004985
!!!CDT:
!!!CNT:
!!!GTL: Pieśni polskie i ruskie ludu galicyjskiego
!!!OTL: 26. A bodaj to w takim domu
!!!PDT: 1833
!!!AGN:
!!!SMS-siglum: PL-Wnifc
!!!SMS-shelfmark: 13846
!!!SMS-shelfwork: 026 G
!!!SMS-variant:
!!!SMS-altvar:
!!!NIFC-rismid: 1001036784
!!!URL-scan: http://repozytorium.nifc.pl/skany/pl-wnifc-nut--13846
!!!ONB-nifc:
!!!OMD: Moderato
!!!AIN: 1 piano 1 vox
!!!key: G
**kern	**kern	**dynam	**kern	**text	**text
*part2	*part2	*part2	*part1	*part1	*part1
*staff3	*staff2	*	*staff1	*staff1	*staff1
*I"Fortepian	*I"Fortepian	*	*I"Głos	*	*
*Ipiano	*Ipiano	*	*Ivox	*	*
*ICklav	*ICklav	*	*ICvox	*	*
*IGacmp	*IGacmp	*	*IGsolo	*	*
*clefF4	*clefG2	*	*clefG2	*	*
*k[f#]	*k[f#]	*	*k[f#]	*	*
*G:	*G:	*	*G:	*	*
*M3/8	*M3/8	*	*M3/8	*	*
*>[A,A,B,B]	*>[A,A,B,B]	*	*>[A,A,B,B]	*	*
=1-	=1-	=1-	=1-	=1-	=1-
*>A	*>A	*	*>A	*	*
!LO:TX:t=P:problem=mixed beam	!	!	!LO:TX:a:t=D.a.14	!	!
8GG/L	16g/LL	.	16g/	A	wy-
.	16b\JJ	.	16b/	bo-	-pi-
8G\ 8B\ 8d\	8b\L 8dd\	.	8dd\	-daj	-je-
8G\J 8B\ 8d\	8b\J 8dd\	.	8dd\	to	-my
=2	=2	=2	=2	=2	=2
16G\LL	16b\LL 16dd\	.	16dd\	w ta-	pier-
16B\JJ 16d\	16b\JJ 16dd\	.	16dd\	-kim	-wszą,
8.c\ 8.e\	8.cc\ 8.ee\	.	8.ee\	do-	dru-
!!LO:LB:g=original
=-	=-	=-	=-	=-	=-
16B\ 16d\	16b\ 16dd\	.	16dd\	-mu	-gą,
=3	=3	=3	=3	=3	=3
!LO:TX:t=P:problem=mixed beam	!	!	!	!	!
8DD/L	16a\LL 16cc\	.	16cc\	słod-	trze-
.	16a\JJ 16cc\	.	16cc\	-kie	-cią,
8D\ 8A\	8f#/L 8a/	.	8a/	pę-	czwar-
8D\J 8A\	8d/J 8f#/	.	8f#/	-dzić	-tą,
=4	=4	=4	=4	=4	=4
8G\L	16B/LL 16g/	.	(16g/LL	chwi-	pią-
.	16g/JJ 16b/	.	16b\JJ)	.	.
8B\	4b\ 4dd\	.	4dd\	-le,	-tą
8G\J	.	.	.	.	.
!!LO:LB:g=original
=5	=5	=5	=5	=5	=5
!LO:TX:t=P:problem=mixed beam	!	!	!	!	!
8GG/L	16g\LL	.	16g/	gdzie	wy-
.	16b\JJ	.	16b/	się	-pi-
8G\ 8B\ 8d\	8b\L 8dd\	.	8dd\	mo-	-je-
8G\J 8B\ 8d\	8b\J 8dd\	.	8dd\	-żna	-my
=6	=6	=6	=6	=6	=6
16G\LL 16B\ 16d\	16b\LL 16dd\	.	16dd\	do-	szó-
16G\JJ 16B\ 16d\	16b\JJ 16dd\	.	16dd\	-brze	-stą,
!	!	!LO:DY:t=sf.:rj	!	!	!
8.Gn\L 8.A#X\ 8.c#X\ 8.e\	8.a#X\L 8.cc#X\ 8.ee\	sf	8.ee\	ba-	sió-
16B\Jk 16d\	16b\Jk 16dd\	.	16dd\	-wić	-dmą
!!LO:LB:g=original
=7	=7	=7	=7	=7	=7
8D\L 8F#\ 8c\	16a\LL 16ccn\	.	16cc\	we-	ó-
.	16a\JJ 16cc\	.	16cc\	-so-	-smą,
8D\ 8F#\ 8c\	8d\L 8a\	.	8a/	-ło	i
8D\J 8A\ 8c\	8d\J 8f#\	.	8f#/	i	dzie-
=8	=8	=8	=8	=8	=8
*^	*	*	*	*	*
8G\	(<16c/LL	(16a/LL	.	(16a/LL	mi-	-wią-
.	16B/JJ)	16g/JJ)	.	16g/JJ)	.	.
4G\	4B/	4g/	.	4g/	-le:	-tą,
*v	*v	*	*	*	*	*
!!LO:PB:g=original
=9:|!|:	=9:|!|:	=9:|!|:	=9:|!|:	=9:|!|:	=9:|!|:
*>B	*>B	*	*>B	*	*
*tremolo	*	*	*	*	*
16G\ 16B\LL	16.g\LL	.	16g/	A	.
16d\	.	.	16gg\	kie-	.
.	32g\JJk 32gg\	.	.	.	.
16G\ 16B\	8g\L 8gg\	.	8gg\	-dy	.
16d\	.	.	.	.	.
16G\ 16B\	8g\J 8gg\	.	8gg\	się	.
16d\JJ	.	.	.	.	.
=10	=10	=10	=10	=10	=10
16G\ 16B\LL	16g\LL 16gg\	.	16gg\	i	.
16d\	16g\JJ 16gg\	.	16gg\	dzie-	.
16G\ 16B\	8b\L 8dd\	.	8dd\	-sią-	.
16d\	.	.	.	.	.
16G\ 16B\	8g\J 8b\	.	8b/	-ta	.
16d\JJ	.	.	.	.	.
*Xtremolo	*	*	*	*	*
!!LO:LB:g=original
=11	=11	=11	=11	=11	=11
16D\LL 16F#\ 16A\	16d/LL 16f#/ 16a/ 16cc/	.	16cc\	je-	.
16c\	16a/JJ 16cc/	.	16cc\	-de-	.
16D\ 16A\	8f#/L 8a/	.	8a/	-na-	.
16c\	.	.	.	.	.
16D\ 16A\	8d/J 8f#/	.	8f#/	-sta	.
16c\JJ	.	.	.	.	.
=12	=12	=12	=12	=12	=12
*tremolo	*	*	*	*	*
16G\ 16B\LL	16g/LL	.	(16g/LL	zda-	.
16d\	16b\JJ	.	16b\JJ)	.	.
16G\ 16B\	4b\ 4dd\	.	4dd\	-rza,	.
16d\	.	.	.	.	.
16G\ 16B\	.	.	.	.	.
16d\JJ	.	.	.	.	.
*Xtremolo	*	*	*	*	*
=13	=13	=13	=13	=13	=13
8GGG/ 8GG/	16g/LL	.	16g/	wy-	.
.	16b\JJ	.	16b/	-pi-	.
!!LO:LB:g=original
=-	=-	=-	=-	=-	=-
8G\L 8B\ 8d\	8b\L 8dd\	.	8dd\	-je-	.
8G\J 8B\ 8d\	8b\J 8dd\	.	8dd\	-my	.
=14	=14	=14	=14	=14	=14
16G\LL 16B\ 16d\	16b\LL 16dd\	.	16dd\	choć-	.
16G\JJ 16B\ 16d\	16b\JJ 16dd\	.	16dd\	-by	.
!	!	!LO:DY:t=sf.:rj	!	!	!
8.G\L 8.c\ 8.e\	8.ccn\L 8.ee\	sf	8.ee\	becz-	.
16G\Jk 16B\ 16d\	16b\Jk 16dd\	.	16dd\	-kę	.
=15	=15	=15	=15	=15	=15
8DD/	16a\LL 16cc\	.	16cc\	zdro-	.
.	16a\JJ 16cc\	.	16cc\	-wie	.
!!LO:LB:g=original
=-	=-	=-	=-	=-	=-
8D\L 8A\ 8c\	8f#/L 8a/	.	8a/	go-	.
8D\J 8A\ 8c\	8d/J 8f#/	.	8f#/	-spo-	.
=16	=16	=16	=16	=16	=16
*^	*^	*	*	*	*
8G\ 8c\	8ryy	16d/LL 16a/	8d\	.	(16a/LL	-da-	.
.	.	[<16g/JJ	.	.	16g/JJ)	.	.
4G\	4B/	4d/ 4g/]	4d\	.	4g/	-rza.	.
*v	*v	*	*	*	*	*	*
*	*v	*v	*	*	*	*
!!LO:LB:g=original
=:|!	=:|!	=:|!	=:|!	=:|!	=:|!
*-	*-	*-	*-	*-	*-
!!!system-decoration: s1,{(s2,s3)}
!!!RDF**kern: < = below
!!!RDF**kern: > = above
!!!ENC: Marta Chmielewska
!!!END: 2021-11-10
